48x48/apps/codes.nora.gDiceRoller.svg

<svg xmlns="http://www.w3.org/2000/svg" width="48" height="48" version="1"><rect style="opacity:.2" width="40" height="40" x="4" y="5" rx="2" ry="2"/><rect style="fill:#ca1e1e" width="40" height="40" x="4" y="4" rx="2" ry="2"/><path style="opacity:.2" d="M12 9a4 4 0 0 0-4 4 4 4 0 0 0 4 4 4 4 0 0 0 4-4 4 4 0 0 0-4-4zm24 0a4 4 0 0 0-4 4 4 4 0 0 0 4 4 4 4 0 0 0 4-4 4 4 0 0 0-4-4zM24 21a4 4 0 0 0-4 4 4 4 0 0 0 4 4 4 4 0 0 0 4-4 4 4 0 0 0-4-4zM12 33a4 4 0 0 0-4 4 4 4 0 0 0 4 4 4 4 0 0 0 4-4 4 4 0 0 0-4-4zm24 0a4 4 0 0 0-4 4 4 4 0 0 0 4 4 4 4 0 0 0 4-4 4 4 0 0 0-4-4z"/><path fill="#fff" style="opacity:.2" d="M6 4c-1.108 0-2 .892-2 2v1c0-1.108.892-2 2-2h36c1.108 0 2 .892 2 2V6c0-1.108-.892-2-2-2H6z"/><circle style="fill:#ffb0b0" cx="12" cy="12" r="4"/><circle style="fill:#ffb0b0" cx="36" cy="12" r="4"/><circle style="fill:#ffb0b0" cx="12" cy="36" r="4"/><circle style="fill:#ffb0b0" cx="36" cy="36" r="4"/><circle style="fill:#ffb0b0" cx="24" cy="24" r="4"/><path style="opacity:.2;fill:#f4f4f7" d="M12 8a4 4 0 0 0-4 4 4 4 0 0 0 .035.506A4 4 0 0 1 12 9a4 4 0 0 1 3.965 3.494A4 4 0 0 0 16 12a4 4 0 0 0-4-4zm24 0a4 4 0 0 0-4 4 4 4 0 0 0 .035.506A4 4 0 0 1 36 9a4 4 0 0 1 3.965 3.494A4 4 0 0 0 40 12a4 4 0 0 0-4-4zM24 20a4 4 0 0 0-4 4 4 4 0 0 0 .035.506A4 4 0 0 1 24 21a4 4 0 0 1 3.965 3.494A4 4 0 0 0 28 24a4 4 0 0 0-4-4zM12 32a4 4 0 0 0-4 4 4 4 0 0 0 .035.506A4 4 0 0 1 12 33a4 4 0 0 1 3.965 3.494A4 4 0 0 0 16 36a4 4 0 0 0-4-4zm24 0a4 4 0 0 0-4 4 4 4 0 0 0 .035.506A4 4 0 0 1 36 33a4 4 0 0 1 3.965 3.494A4 4 0 0 0 40 36a4 4 0 0 0-4-4z"/></svg>

<svg xmlns="http://www.w3.org/2000/svg" width="48" height="48" version="1">
 <rect style="opacity:0.2" width="40" height="40" x="4" y="5" rx="2" ry="2"/>
 <rect style="fill:#ca1e1e" width="40" height="40" x="4" y="4" rx="2" ry="2"/>
 <path style="opacity:0.2" d="m 12,9 a 4,4 0 0 0 -4,4 4,4 0 0 0 4,4 4,4 0 0 0 4,-4 4,4 0 0 0 -4,-4 z m 24,0 a 4,4 0 0 0 -4,4 4,4 0 0 0 4,4 4,4 0 0 0 4,-4 4,4 0 0 0 -4,-4 z M 24,21 a 4,4 0 0 0 -4,4 4,4 0 0 0 4,4 4,4 0 0 0 4,-4 4,4 0 0 0 -4,-4 z M 12,33 a 4,4 0 0 0 -4,4 4,4 0 0 0 4,4 4,4 0 0 0 4,-4 4,4 0 0 0 -4,-4 z m 24,0 a 4,4 0 0 0 -4,4 4,4 0 0 0 4,4 4,4 0 0 0 4,-4 4,4 0 0 0 -4,-4 z"/>
 <path fill="#fff" style="opacity:0.2" d="m6 4c-1.108 0-2 0.892-2 2v1c0-1.108 0.892-2 2-2h36c1.108 0 2 0.892 2 2v-1c0-1.108-0.892-2-2-2h-36z"/>
 <circle style="fill:#ffb0b0" cx="12" cy="12" r="4"/>
 <circle style="fill:#ffb0b0" cx="36" cy="12" r="4"/>
 <circle style="fill:#ffb0b0" cx="12" cy="36" r="4"/>
 <circle style="fill:#ffb0b0" cx="36" cy="36" r="4"/>
 <circle style="fill:#ffb0b0" cx="24" cy="24" r="4"/>
 <path style="opacity:0.2;fill:#f4f4f7" d="M 12 8 A 4 4 0 0 0 8 12 A 4 4 0 0 0 8.0351562 12.505859 A 4 4 0 0 1 12 9 A 4 4 0 0 1 15.964844 12.494141 A 4 4 0 0 0 16 12 A 4 4 0 0 0 12 8 z M 36 8 A 4 4 0 0 0 32 12 A 4 4 0 0 0 32.035156 12.505859 A 4 4 0 0 1 36 9 A 4 4 0 0 1 39.964844 12.494141 A 4 4 0 0 0 40 12 A 4 4 0 0 0 36 8 z M 24 20 A 4 4 0 0 0 20 24 A 4 4 0 0 0 20.035156 24.505859 A 4 4 0 0 1 24 21 A 4 4 0 0 1 27.964844 24.494141 A 4 4 0 0 0 28 24 A 4 4 0 0 0 24 20 z M 12 32 A 4 4 0 0 0 8 36 A 4 4 0 0 0 8.0351562 36.505859 A 4 4 0 0 1 12 33 A 4 4 0 0 1 15.964844 36.494141 A 4 4 0 0 0 16 36 A 4 4 0 0 0 12 32 z M 36 32 A 4 4 0 0 0 32 36 A 4 4 0 0 0 32.035156 36.505859 A 4 4 0 0 1 36 33 A 4 4 0 0 1 39.964844 36.494141 A 4 4 0 0 0 40 36 A 4 4 0 0 0 36 32 z"/>
</svg>
